X:732
T:The Tournmore Polka
M:2/4
L:1/8
K:D
"A"e f/e/ "E"dB|"A"BA B/c/ d|e f/e/ "E7"dB|"A"BA A2|\
e f/e/ "E7"dB|"A"BA "G"B/c/ d|
"A7"a3/2a/ gc|"D"ed d2:|"D"f3/2e/ fA|"G"(3Bcd "A"ef|"G"g3/2f/ ga|
"D"ba fa|f3/2e/ fA|"G"(3Bcd "A"ef|a3/2a/ gc|"D"ed d2:|
